X:996
T:Sue's Fancy
C:Charles Bolton, 1982
L:1/8
M:6/8
R:Jig
S:Colin Hume's website,  colinhume.com  - chords can also be printed below the stave.
Q:3/8=102
K:G
P:A
|: "G"D2G "/"Bcd | "G"gdc "/"BAG | "Am"Ace "G"dBG | "C"AcG "D7"FcE |\
"G"D2G "/"Bcd | "G7"g=fe "/"dcB | "Am"Ace "Bb"d_B=F | "D7"DE^F "G"G3 :|
P:B
|: "D7"A2B "/"cBA | "G"Bdg "/"dBG | "D7"ABc "/"cBA | "G"Bde "G7"=fed |\
"C"egd "/"cgB | "Am"AcG "/"FcE | "Bb"D=F_B "/"dBF | "D7"DE^F "G"G3 :|

